<?xml version="1.0" encoding="UTF-8"?>
<map version="1.10" tiledversion="1.11.2" orientation="isometric" renderorder="right-down" width="30" height="20" tilewidth="128" tileheight="64" infinite="0" nextlayerid="12" nextobjectid="208">
 <tileset firstgid="1" source="../tiled-project/tilesets/terrain-dirt-a-to-sand-a.tsx"/>
 <tileset firstgid="33" source="../tiled-project/tilesets/plants-01.tsx"/>
 <layer id="3" name="sand" width="30" height="20" locked="1">
  <data encoding="csv">
32,32,32,32,32,32,32,32,32,32,32,32,32,32,32,32,32,32,32,32,32,32,32,32,32,32,32,32,32,32,
32,32,32,32,32,32,32,32,32,32,32,32,32,32,32,32,32,32,32,32,32,32,32,32,32,32,32,32,32,32,
32,32,32,32,32,32,32,32,32,32,32,32,32,32,32,32,32,32,32,32,32,32,32,32,32,32,32,32,32,32,
32,32,32,32,32,32,32,32,32,32,32,32,32,32,32,32,32,32,32,32,32,32,32,32,32,32,32,32,32,32,
32,32,32,32,32,32,32,32,32,32,32,32,32,32,32,32,32,32,32,32,32,32,32,32,32,32,32,32,32,32,
32,32,32,32,32,32,32,32,32,32,32,32,32,32,32,32,32,32,32,32,32,32,32,32,32,32,32,32,32,32,
32,32,32,32,32,32,32,32,32,32,32,32,32,32,32,32,32,32,32,32,32,32,32,32,32,32,32,32,32,32,
32,32,32,32,32,32,32,32,32,32,32,32,32,32,32,32,32,32,32,32,32,32,32,32,32,32,32,32,32,32,
32,32,32,32,32,32,32,32,32,32,32,32,32,32,32,32,32,32,32,32,32,32,32,32,32,32,32,32,32,32,
32,32,32,32,32,32,32,32,32,32,32,32,32,32,32,32,32,32,32,32,32,32,32,32,32,32,32,32,32,32,
32,32,32,32,32,32,32,32,32,32,32,32,32,32,32,32,32,32,32,32,32,32,32,32,32,32,32,32,32,32,
32,32,32,32,32,32,32,32,32,32,32,32,32,32,32,32,32,32,32,32,32,32,32,32,32,32,32,32,32,32,
32,32,32,32,32,32,32,32,32,32,32,32,32,32,32,32,32,32,32,32,32,32,32,32,32,32,32,32,32,32,
32,32,32,32,32,32,32,32,32,32,32,32,32,32,32,32,32,32,32,32,32,32,32,32,32,32,32,32,32,32,
32,32,32,32,32,32,32,32,32,32,32,32,32,32,32,32,32,32,32,32,32,32,32,32,32,32,32,32,32,32,
32,32,32,32,32,32,32,32,32,32,32,32,32,32,32,32,32,32,32,32,32,32,32,32,32,32,32,32,32,32,
32,32,32,32,32,32,32,32,32,32,32,32,32,32,32,32,32,32,32,32,32,32,32,32,32,32,32,32,32,32,
32,32,32,32,32,32,32,32,32,32,32,32,32,32,32,32,32,32,32,32,32,32,32,32,32,32,32,32,32,32,
32,32,32,32,32,32,32,32,32,32,32,32,32,32,32,32,32,32,32,32,32,32,32,32,32,32,32,32,32,32,
32,32,32,32,32,32,32,32,32,32,32,32,32,32,32,32,32,32,32,32,32,32,32,32,32,32,32,32,32,32
</data>
 </layer>
 <layer id="11" name="patterns" width="30" height="20">
  <data encoding="csv">
24,30,30,30,30,30,5,26,19,0,17,28,15,30,30,2,10,0,0,0,0,17,15,30,30,30,30,30,30,30,
11,7,30,30,30,30,6,27,10,0,0,0,17,28,27,10,0,0,0,0,0,0,11,27,28,3,30,30,30,30,
12,4,30,30,30,2,10,0,0,0,0,0,0,0,0,12,19,0,0,0,0,0,0,0,0,24,30,30,30,30,
23,30,2,28,27,20,0,0,0,0,0,0,18,25,26,8,1,19,0,0,0,0,0,0,0,17,14,30,30,30,
11,28,20,0,0,0,0,0,0,0,0,18,16,30,30,30,30,5,25,19,0,0,0,0,0,0,11,3,30,30,
0,0,0,0,0,0,0,0,0,0,18,16,30,30,30,30,30,30,30,22,0,0,0,0,0,0,0,17,7,30,
0,0,0,0,0,0,0,0,0,0,23,30,30,30,30,30,30,30,30,13,19,0,0,0,0,0,0,0,23,30,
0,0,0,0,0,0,0,0,0,0,17,15,30,30,30,30,30,30,30,30,21,0,0,0,0,0,0,0,24,30,
0,0,0,0,0,0,0,0,0,0,0,24,30,30,30,30,30,30,30,30,5,19,0,0,0,0,0,0,23,30,
0,0,0,18,25,25,25,19,0,0,0,11,27,15,30,30,30,30,30,30,30,13,19,0,0,0,0,0,24,30,
12,9,0,23,30,30,30,13,19,0,0,0,0,23,30,30,30,30,30,30,30,30,22,0,0,0,0,18,8,30,
23,5,19,24,30,30,30,30,1,26,9,0,0,11,27,28,27,3,30,30,30,30,21,0,0,0,0,24,30,30,
24,30,1,4,30,30,30,30,30,6,10,0,0,0,0,0,18,4,30,30,30,2,10,0,0,0,0,11,3,30,
11,15,30,30,30,30,30,30,30,5,19,0,0,0,0,0,24,2,15,30,2,10,0,0,0,0,0,0,11,27,
0,24,30,30,30,30,30,30,30,2,20,0,0,0,18,26,8,22,17,27,20,0,0,0,0,0,0,0,0,0,
0,17,7,30,30,30,30,30,30,22,0,0,0,18,4,30,30,21,0,0,0,0,0,0,0,0,0,0,0,0,
0,0,11,28,7,30,30,30,6,20,0,0,0,23,30,30,30,1,25,26,19,0,0,0,0,0,18,9,0,0,
19,0,0,0,11,28,28,27,10,0,0,0,0,17,28,27,14,30,30,30,13,9,0,0,0,0,24,1,26,25,
13,9,0,0,0,0,0,0,0,0,0,0,0,0,0,0,23,30,30,30,30,1,19,0,0,0,11,15,30,30,
30,5,26,9,0,0,0,0,0,0,0,0,0,0,0,0,24,30,30,30,30,2,20,0,0,0,0,11,7,30
</data>
 </layer>
 <objectgroup id="2" name="plantas">
  <object id="148" gid="39" x="508.667" y="203.333" width="256" height="256"/>
  <object id="149" gid="39" x="256" y="461.333" width="256" height="256"/>
  <object id="150" gid="39" x="649.333" y="593.333" width="256" height="256"/>
  <object id="151" gid="39" x="1072" y="570.667" width="256" height="256"/>
  <object id="152" gid="39" x="626" y="963.333" width="256" height="256"/>
  <object id="153" x="69" y="717.667" width="244" height="264">
   <ellipse/>
  </object>
  <object id="164" gid="40" x="846.667" y="316" width="256" height="256"/>
  <object id="165" gid="40" x="932.667" y="811.333" width="256" height="256"/>
  <object id="166" gid="40" x="342.667" y="294.667" width="256" height="256"/>
  <object id="167" gid="98" x="699.333" y="380.667" width="256" height="128"/>
  <object id="168" gid="98" x="664" y="810.667" width="256" height="128"/>
  <object id="169" gid="98" x="479.333" y="635.333" width="256" height="128"/>
  <object id="170" gid="98" x="1183.33" y="899.333" width="256" height="128"/>
  <object id="171" gid="98" x="884" y="548" width="256" height="128"/>
  <object id="172" gid="98" x="850.667" y="149.333" width="256" height="128"/>
  <object id="173" gid="97" x="1546" y="990" width="256" height="128"/>
  <object id="174" gid="105" x="1541.33" y="898.667" width="256" height="128"/>
  <object id="175" gid="105" x="1437.33" y="936" width="256" height="128"/>
  <object id="176" gid="110" x="1472.67" y="900.667" width="128" height="64"/>
  <object id="177" gid="110" x="1464" y="848" width="128" height="64"/>
  <object id="178" gid="110" x="1452.67" y="966" width="128" height="64"/>
  <object id="179" gid="110" x="1478" y="1028.67" width="128" height="64"/>
  <object id="180" gid="110" x="1563.33" y="1026" width="128" height="64"/>
  <object id="181" gid="108" x="1643.33" y="970" width="128" height="64"/>
  <object id="182" gid="108" x="1568" y="1093.33" width="128" height="64"/>
  <object id="183" gid="108" x="1416" y="1050.67" width="128" height="64"/>
  <object id="184" gid="108" x="1608.67" y="828.667" width="128" height="64"/>
  <object id="185" gid="91" x="1462" y="876.667" width="256" height="128"/>
  <object id="186" gid="91" x="1387.33" y="962" width="256" height="128"/>
  <object id="187" gid="52" x="1560.67" y="911.333" width="128" height="64"/>
  <object id="188" gid="52" x="1534.67" y="993.333" width="128" height="64"/>
  <object id="189" gid="52" x="1500" y="988" width="128" height="64"/>
  <object id="190" gid="52" x="1434.67" y="1002.67" width="128" height="64"/>
  <object id="191" gid="52" x="1474.67" y="786.667" width="128" height="64"/>
  <object id="192" gid="52" x="1477.33" y="818.667" width="128" height="64"/>
  <object id="193" gid="52" x="1404.67" y="819.333" width="128" height="64"/>
  <object id="194" gid="52" x="1396" y="860" width="128" height="64"/>
  <object id="195" gid="52" x="1383.33" y="947.333" width="128" height="64"/>
  <object id="196" gid="52" x="1408" y="965.333" width="128" height="64"/>
  <object id="197" gid="33" x="1526.67" y="1049.33" width="256" height="128"/>
  <object id="198" gid="33" x="1590.67" y="950.667" width="256" height="128"/>
  <object id="199" gid="33" x="1499.33" y="927.333" width="256" height="128"/>
  <object id="200" gid="33" x="1446.67" y="766.667" width="256" height="128"/>
  <object id="201" gid="33" x="1412" y="793.333" width="256" height="128"/>
  <object id="202" gid="33" x="1323.33" y="911.333" width="256" height="128"/>
  <object id="203" gid="33" x="1318.67" y="985.333" width="256" height="128"/>
  <object id="204" gid="33" x="1374.67" y="1017.33" width="256" height="128"/>
  <object id="205" gid="33" x="1520" y="813.333" width="256" height="128"/>
  <object id="206" gid="33" x="1522" y="739.333" width="256" height="128"/>
  <object id="207" gid="33" x="1365.33" y="840" width="256" height="128"/>
 </objectgroup>
</map>
