<?xml version="1.0" encoding="UTF-8"?>
<map version="1.10" tiledversion="1.11.2" orientation="isometric" renderorder="right-down" width="30" height="20" tilewidth="128" tileheight="64" infinite="0" nextlayerid="9" nextobjectid="46">
 <editorsettings>
  <export target="../maps/level-2.json" format="json"/>
 </editorsettings>
 <tileset firstgid="1" name="dirt-a-to-sand-a" tilewidth="128" tileheight="64" tilecount="32" columns="4">
  <image source="../textures/terrain/128x64 Dirt A to Sand A.png" width="512" height="512"/>
  <wangsets>
   <wangset name="Dirt A to Sand" type="corner" tile="29">
    <wangcolor name="" color="#ff0000" tile="29" probability="1"/>
    <wangtile tileid="0" wangid="0,0,0,1,0,1,0,1"/>
    <wangtile tileid="1" wangid="0,1,0,0,0,1,0,1"/>
    <wangtile tileid="2" wangid="0,1,0,1,0,0,0,1"/>
    <wangtile tileid="3" wangid="0,1,0,1,0,1,0,0"/>
    <wangtile tileid="16" wangid="0,1,0,0,0,0,0,0"/>
    <wangtile tileid="17" wangid="0,0,0,1,0,0,0,0"/>
    <wangtile tileid="18" wangid="0,0,0,0,0,1,0,0"/>
    <wangtile tileid="19" wangid="0,0,0,0,0,0,0,1"/>
    <wangtile tileid="20" wangid="0,0,0,0,0,1,0,1"/>
    <wangtile tileid="22" wangid="0,1,0,1,0,0,0,0"/>
    <wangtile tileid="24" wangid="0,0,0,1,0,1,0,0"/>
    <wangtile tileid="26" wangid="0,1,0,0,0,0,0,1"/>
    <wangtile tileid="29" wangid="0,1,0,1,0,1,0,1"/>
   </wangset>
  </wangsets>
 </tileset>
 <tileset firstgid="33" name="plants-01" tilewidth="256" tileheight="256" tilecount="79" columns="0">
  <grid orientation="orthogonal" width="1" height="1"/>
  <tile id="0">
   <image source="../textures/plants/plants-01/bamboo01.png" width="256" height="128"/>
  </tile>
  <tile id="1">
   <image source="../textures/plants/plants-01/bamboo02.png" width="256" height="128"/>
  </tile>
  <tile id="2">
   <image source="../textures/plants/plants-01/bamboo03.png" width="256" height="128"/>
  </tile>
  <tile id="3">
   <image source="../textures/plants/plants-01/bamboo04.png" width="256" height="128"/>
  </tile>
  <tile id="4">
   <image source="../textures/plants/plants-01/bamboo05.png" width="256" height="128"/>
  </tile>
  <tile id="5">
   <image source="../textures/plants/plants-01/bamboo06.png" width="256" height="128"/>
  </tile>
  <tile id="6">
   <image source="../textures/plants/plants-01/bigtree01.png" width="256" height="256"/>
  </tile>
  <tile id="7">
   <image source="../textures/plants/plants-01/bigtree02.png" width="256" height="256"/>
  </tile>
  <tile id="8">
   <image source="../textures/plants/plants-01/bigtree03.png" width="256" height="256"/>
  </tile>
  <tile id="9">
   <image source="../textures/plants/plants-01/bush01.png" width="256" height="128"/>
  </tile>
  <tile id="10">
   <image source="../textures/plants/plants-01/bush02.png" width="128" height="64"/>
  </tile>
  <tile id="11">
   <image source="../textures/plants/plants-01/bush03.png" width="128" height="64"/>
  </tile>
  <tile id="12">
   <image source="../textures/plants/plants-01/bush04.png" width="128" height="64"/>
  </tile>
  <tile id="13">
   <image source="../textures/plants/plants-01/bush05.png" width="256" height="128"/>
  </tile>
  <tile id="14">
   <image source="../textures/plants/plants-01/cactus01.png" width="128" height="128"/>
  </tile>
  <tile id="15">
   <image source="../textures/plants/plants-01/cactus02.png" width="128" height="128"/>
  </tile>
  <tile id="16">
   <image source="../textures/plants/plants-01/cactus03.png" width="128" height="128"/>
  </tile>
  <tile id="17">
   <image source="../textures/plants/plants-01/cactus04.png" width="128" height="128"/>
  </tile>
  <tile id="18">
   <image source="../textures/plants/plants-01/grasses01.png" width="128" height="64"/>
  </tile>
  <tile id="19">
   <image source="../textures/plants/plants-01/grasses02.png" width="128" height="64"/>
  </tile>
  <tile id="20">
   <image source="../textures/plants/plants-01/grasses03.png" width="128" height="64"/>
  </tile>
  <tile id="21">
   <image source="../textures/plants/plants-01/grasses04.png" width="128" height="64"/>
  </tile>
  <tile id="22">
   <image source="../textures/plants/plants-01/grasses05.png" width="128" height="64"/>
  </tile>
  <tile id="23">
   <image source="../textures/plants/plants-01/hemp01.png" width="256" height="128"/>
  </tile>
  <tile id="24">
   <image source="../textures/plants/plants-01/hemp02.png" width="256" height="128"/>
  </tile>
  <tile id="25">
   <image source="../textures/plants/plants-01/hemp03.png" width="256" height="128"/>
  </tile>
  <tile id="26">
   <image source="../textures/plants/plants-01/palm01.png" width="256" height="128"/>
  </tile>
  <tile id="27">
   <image source="../textures/plants/plants-01/palm02.png" width="256" height="128"/>
  </tile>
  <tile id="28">
   <image source="../textures/plants/plants-01/palm03.png" width="256" height="128"/>
  </tile>
  <tile id="29">
   <image source="../textures/plants/plants-01/palm04.png" width="256" height="128"/>
  </tile>
  <tile id="30">
   <image source="../textures/plants/plants-01/palm05.png" width="256" height="128"/>
  </tile>
  <tile id="31">
   <image source="../textures/plants/plants-01/palm06.png" width="256" height="128"/>
  </tile>
  <tile id="32">
   <image source="../textures/plants/plants-01/pine-full01.png" width="256" height="256"/>
  </tile>
  <tile id="33">
   <image source="../textures/plants/plants-01/pine-full02.png" width="256" height="256"/>
  </tile>
  <tile id="34">
   <image source="../textures/plants/plants-01/pine-full03.png" width="256" height="256"/>
  </tile>
  <tile id="35">
   <image source="../textures/plants/plants-01/pine-full04.png" width="256" height="256"/>
  </tile>
  <tile id="36">
   <image source="../textures/plants/plants-01/pine-full05.png" width="256" height="256"/>
  </tile>
  <tile id="37">
   <image source="../textures/plants/plants-01/pine-full06.png" width="256" height="256"/>
  </tile>
  <tile id="38">
   <image source="../textures/plants/plants-01/pine-full07.png" width="256" height="256"/>
  </tile>
  <tile id="39">
   <image source="../textures/plants/plants-01/pine-full08.png" width="256" height="256"/>
  </tile>
  <tile id="40">
   <image source="../textures/plants/plants-01/pine-half01.png" width="256" height="256"/>
  </tile>
  <tile id="41">
   <image source="../textures/plants/plants-01/pine-half02.png" width="256" height="256"/>
  </tile>
  <tile id="42">
   <image source="../textures/plants/plants-01/pine-half03.png" width="256" height="256"/>
  </tile>
  <tile id="43">
   <image source="../textures/plants/plants-01/pine-half04.png" width="256" height="256"/>
  </tile>
  <tile id="44">
   <image source="../textures/plants/plants-01/pine-half05.png" width="256" height="256"/>
  </tile>
  <tile id="45">
   <image source="../textures/plants/plants-01/pine-half06.png" width="256" height="256"/>
  </tile>
  <tile id="46">
   <image source="../textures/plants/plants-01/pine-half07.png" width="256" height="256"/>
  </tile>
  <tile id="47">
   <image source="../textures/plants/plants-01/pine-half08.png" width="256" height="256"/>
  </tile>
  <tile id="48">
   <image source="../textures/plants/plants-01/pine-none01.png" width="256" height="256"/>
  </tile>
  <tile id="49">
   <image source="../textures/plants/plants-01/pine-none02.png" width="256" height="256"/>
  </tile>
  <tile id="50">
   <image source="../textures/plants/plants-01/pine-none03.png" width="256" height="256"/>
  </tile>
  <tile id="51">
   <image source="../textures/plants/plants-01/pine-none04.png" width="256" height="256"/>
  </tile>
  <tile id="52">
   <image source="../textures/plants/plants-01/pine-none05.png" width="256" height="256"/>
  </tile>
  <tile id="53">
   <image source="../textures/plants/plants-01/pine-none06.png" width="256" height="256"/>
  </tile>
  <tile id="54">
   <image source="../textures/plants/plants-01/pine-none07.png" width="256" height="256"/>
  </tile>
  <tile id="55">
   <image source="../textures/plants/plants-01/pine-none08.png" width="256" height="256"/>
  </tile>
  <tile id="56">
   <image source="../textures/plants/plants-01/shrub1-01.png" width="256" height="128"/>
  </tile>
  <tile id="57">
   <image source="../textures/plants/plants-01/shrub1-02.png" width="256" height="128"/>
  </tile>
  <tile id="58">
   <image source="../textures/plants/plants-01/shrub1-03.png" width="256" height="128"/>
  </tile>
  <tile id="59">
   <image source="../textures/plants/plants-01/shrub1-04.png" width="256" height="128"/>
  </tile>
  <tile id="60">
   <image source="../textures/plants/plants-01/shrub1-05.png" width="256" height="128"/>
  </tile>
  <tile id="61">
   <image source="../textures/plants/plants-01/shrub2-01.png" width="256" height="128"/>
  </tile>
  <tile id="62">
   <image source="../textures/plants/plants-01/shrub2-02.png" width="256" height="128"/>
  </tile>
  <tile id="63">
   <image source="../textures/plants/plants-01/shrub2-03.png" width="256" height="128"/>
  </tile>
  <tile id="64">
   <image source="../textures/plants/plants-01/shrub2-04.png" width="256" height="128"/>
  </tile>
  <tile id="65">
   <image source="../textures/plants/plants-01/shrub2-05.png" width="256" height="128"/>
  </tile>
  <tile id="66">
   <image source="../textures/plants/plants-01/swirl01.png" width="128" height="64"/>
  </tile>
  <tile id="67">
   <image source="../textures/plants/plants-01/swirl02.png" width="128" height="64"/>
  </tile>
  <tile id="68">
   <image source="../textures/plants/plants-01/tropical01.png" width="256" height="128"/>
  </tile>
  <tile id="69">
   <image source="../textures/plants/plants-01/tropical02.png" width="256" height="128"/>
  </tile>
  <tile id="70">
   <image source="../textures/plants/plants-01/tropical03.png" width="256" height="128"/>
  </tile>
  <tile id="71">
   <image source="../textures/plants/plants-01/tropical04.png" width="256" height="128"/>
  </tile>
  <tile id="72">
   <image source="../textures/plants/plants-01/tropical05.png" width="256" height="128"/>
  </tile>
  <tile id="73">
   <image source="../textures/plants/plants-01/weed01.png" width="128" height="64"/>
  </tile>
  <tile id="74">
   <image source="../textures/plants/plants-01/weed02.png" width="128" height="64"/>
  </tile>
  <tile id="75">
   <image source="../textures/plants/plants-01/weed03.png" width="128" height="64"/>
  </tile>
  <tile id="76">
   <image source="../textures/plants/plants-01/weed04.png" width="128" height="64"/>
  </tile>
  <tile id="77">
   <image source="../textures/plants/plants-01/weed05.png" width="128" height="64"/>
  </tile>
  <tile id="78">
   <image source="../textures/plants/plants-01/weed06.png" width="128" height="64"/>
  </tile>
 </tileset>
 <tileset firstgid="112" source="tilesets/plants-01.tsx"/>
 <layer id="3" name="sand" width="30" height="20" locked="1">
  <data encoding="csv">
32,32,32,32,32,32,32,32,32,32,32,32,32,32,32,32,32,32,32,32,32,32,32,32,32,32,32,32,32,32,
32,32,32,32,32,32,32,32,32,32,32,32,32,32,32,32,32,32,32,32,32,32,32,32,32,32,32,32,32,32,
32,32,32,32,32,32,32,32,32,32,32,32,32,32,32,32,32,32,32,32,32,32,32,32,32,32,32,32,32,32,
32,32,32,32,32,32,32,32,32,32,32,32,32,32,32,32,32,32,32,32,32,32,32,32,32,32,32,32,32,32,
32,32,32,32,32,32,32,32,32,32,32,32,32,32,32,32,32,32,32,32,32,32,32,32,32,32,32,32,32,32,
32,32,32,32,32,32,32,32,32,32,32,32,32,32,32,32,32,32,32,32,32,32,32,32,32,32,32,32,32,32,
32,32,32,32,32,32,32,32,32,32,32,32,32,32,32,32,32,32,32,32,32,32,32,32,32,32,32,32,32,32,
32,32,32,32,32,32,32,32,32,32,32,32,32,32,32,32,32,32,32,32,32,32,32,32,32,32,32,32,32,32,
32,32,32,32,32,32,32,32,32,32,32,32,32,32,32,32,32,32,32,32,32,32,32,32,32,32,32,32,32,32,
32,32,32,32,32,32,32,32,32,32,32,32,32,32,32,32,32,32,32,32,32,32,32,32,32,32,32,32,32,32,
32,32,32,32,32,32,32,32,32,32,32,32,32,32,32,32,32,32,32,32,32,32,32,32,32,32,32,32,32,32,
32,32,32,32,32,32,32,32,32,32,32,32,32,32,32,32,32,32,32,32,32,32,32,32,32,32,32,32,32,32,
32,32,32,32,32,32,32,32,32,32,32,32,32,32,32,32,32,32,32,32,32,32,32,32,32,32,32,32,32,32,
32,32,32,32,32,32,32,32,32,32,32,32,32,32,32,32,32,32,32,32,32,32,32,32,32,32,32,32,32,32,
32,32,32,32,32,32,32,32,32,32,32,32,32,32,32,32,32,32,32,32,32,32,32,32,32,32,32,32,32,32,
32,32,32,32,32,32,32,32,32,32,32,32,32,32,32,32,32,32,32,32,32,32,32,32,32,32,32,32,32,32,
32,32,32,32,32,32,32,32,32,32,32,32,32,32,32,32,32,32,32,32,32,32,32,32,32,32,32,32,32,32,
32,32,32,32,32,32,32,32,32,32,32,32,32,32,32,32,32,32,32,32,32,32,32,32,32,32,32,32,32,32,
32,32,32,32,32,32,32,32,32,32,32,32,32,32,32,32,32,32,32,32,32,32,32,32,32,32,32,32,32,32,
32,32,32,32,32,32,32,32,32,32,32,32,32,32,32,32,32,32,32,32,32,32,32,32,32,32,32,32,32,32
</data>
 </layer>
 <layer id="6" name="dirt" width="30" height="20" locked="1">
  <data encoding="csv">
30,30,21,0,0,0,0,0,0,17,3,30,30,30,30,30,30,30,30,30,30,30,30,21,0,0,0,0,0,0,
30,2,20,0,0,0,0,0,0,0,17,3,30,30,30,30,30,30,30,30,30,30,30,21,0,0,0,0,0,0,
30,21,0,0,0,0,0,0,0,0,0,23,30,30,2,3,30,30,30,30,30,2,27,20,0,0,0,0,0,0,
3,21,0,0,0,18,25,19,0,0,0,17,27,27,20,17,3,30,30,2,27,20,0,0,0,0,0,0,0,0,
17,20,0,18,25,4,30,1,19,0,0,0,0,0,0,0,17,3,30,1,19,0,0,0,0,0,0,18,25,25,
0,0,0,17,3,30,30,30,1,19,0,0,0,0,0,0,0,23,30,30,21,0,0,0,18,25,25,4,30,30,
0,0,0,18,4,30,30,30,30,1,19,0,0,0,0,0,0,23,30,30,21,0,0,0,23,30,30,30,30,30,
0,0,18,4,30,30,30,30,30,30,1,19,0,0,0,0,0,17,27,27,20,0,0,0,23,30,30,30,30,30,
0,0,23,30,30,30,30,30,30,30,30,21,0,0,0,0,0,0,0,0,0,0,0,0,23,30,30,30,30,30,
0,0,17,3,30,30,30,30,30,30,30,21,0,0,18,25,19,0,18,19,18,25,19,0,17,27,27,3,30,30,
0,0,0,17,27,27,27,27,3,30,30,21,0,0,23,30,1,25,4,1,4,30,1,19,0,0,0,23,30,30,
0,0,0,0,0,0,0,0,23,30,30,21,0,0,23,30,30,30,30,30,30,30,30,21,0,0,0,23,30,30,
0,0,0,0,0,0,0,0,17,3,30,21,0,0,17,27,3,30,30,30,30,30,30,1,19,0,0,17,3,30,
0,0,0,0,0,0,0,0,0,17,27,20,0,0,0,0,23,30,30,30,30,30,30,30,1,19,0,0,23,30,
0,0,0,0,0,0,0,0,0,0,0,0,0,0,0,0,17,27,27,27,27,27,3,30,30,21,0,0,23,30,
25,19,0,0,0,0,0,0,0,0,0,0,0,0,0,0,0,0,0,0,0,0,23,30,30,21,0,0,17,3,
30,21,0,0,0,0,0,0,0,0,0,0,0,18,25,19,0,0,0,0,0,0,17,27,27,20,0,0,0,17,
30,1,25,19,0,0,0,0,0,0,0,18,25,4,30,1,19,0,0,0,0,0,0,0,0,0,0,0,0,0,
30,30,30,1,19,0,0,0,0,0,0,23,30,30,30,30,1,25,19,0,0,0,0,0,0,0,0,0,0,0,
3,30,30,30,1,25,19,0,0,0,0,17,3,30,30,30,30,2,20,0,0,0,0,0,0,0,0,0,0,0
</data>
 </layer>
 <objectgroup id="2" name="plantas">
  <object id="1" gid="64" x="572.667" y="318" width="256" height="128"/>
  <object id="2" gid="64" x="566.667" y="257.333" width="256" height="128"/>
  <object id="3" gid="64" x="494.667" y="286.667" width="256" height="128"/>
  <object id="4" gid="111" x="496.333" y="834.333" width="128" height="64"/>
  <object id="5" gid="107" x="432.667" y="866" width="128" height="64"/>
  <object id="6" gid="107" x="378.667" y="857.333" width="128" height="64"/>
  <object id="7" gid="111" x="460" y="801.333" width="128" height="64"/>
  <object id="8" gid="111" x="458.333" y="748.333" width="128" height="64"/>
  <object id="9" gid="50" x="427.333" y="819.333" width="128" height="128"/>
  <object id="10" gid="51" x="411.333" y="764.667" width="128" height="64"/>
  <object id="11" gid="51" x="199" y="361" width="128" height="64"/>
  <object id="12" gid="51" x="204" y="309.333" width="128" height="64"/>
  <object id="13" gid="51" x="162" y="332.667" width="128" height="64"/>
  <object id="14" gid="98" x="182.667" y="289.333" width="256" height="128"/>
  <object id="15" gid="98" x="903.667" y="869.667" width="256" height="128"/>
  <object id="16" gid="97" x="856.667" y="959.333" width="256" height="128"/>
  <object id="17" gid="93" x="822" y="875.333" width="256" height="128"/>
  <object id="18" gid="105" x="888" y="789.333" width="256" height="128"/>
  <object id="19" gid="105" x="830" y="474" width="256" height="128"/>
  <object id="20" gid="111" x="861" y="456.333" width="128" height="64"/>
  <object id="21" gid="111" x="1150.67" y="622.667" width="128" height="64"/>
  <object id="22" gid="111" x="1130.67" y="538.667" width="128" height="64"/>
  <object id="23" gid="111" x="1106" y="579.333" width="128" height="64"/>
  <object id="24" gid="111" x="210.667" y="637.333" width="128" height="64"/>
  <object id="25" gid="98" x="246.667" y="558.667" width="256" height="128"/>
  <object id="26" gid="72" x="402.667" y="376" width="256" height="256"/>
  <object id="27" gid="72" x="726.667" y="908" width="256" height="256"/>
  <object id="28" gid="72" x="819.333" y="263.333" width="256" height="256"/>
  <object id="29" gid="88" x="766.667" y="564" width="256" height="256"/>
  <object id="30" gid="88" x="810.667" y="1186.67" width="256" height="256"/>
  <object id="31" gid="84" x="970" y="723.333" width="256" height="256"/>
  <object id="32" gid="84" x="286.667" y="788" width="256" height="256"/>
  <object id="33" gid="84" x="453.333" y="96" width="256" height="256"/>
  <object id="34" gid="84" x="115.333" y="687.333" width="256" height="256"/>
  <object id="35" gid="88" x="561.333" y="102.667" width="256" height="256"/>
  <object id="36" gid="88" x="164" y="780" width="256" height="256"/>
  <object id="37" gid="88" x="558.667" y="1190.67" width="256" height="256"/>
  <object id="38" gid="50" x="283.333" y="858" width="128" height="128"/>
  <object id="39" gid="50" x="265.333" y="902.667" width="128" height="128"/>
  <object id="40" gid="49" x="255.333" y="880.667" width="128" height="128"/>
  <object id="41" gid="49" x="724" y="313.333" width="128" height="128"/>
  <object id="42" gid="49" x="760.667" y="322" width="128" height="128"/>
  <object id="43" gid="49" x="726.667" y="361.333" width="128" height="128"/>
  <object id="44" gid="47" x="711.333" y="366" width="128" height="128"/>
  <object id="45" gid="47" x="690.667" y="301.333" width="128" height="128"/>
 </objectgroup>
</map>
