<?xml version="1.0" encoding="UTF-8"?>
<map version="1.10" tiledversion="1.11.2" orientation="orthogonal" renderorder="right-down" width="30" height="20" tilewidth="32" tileheight="32" infinite="1" nextlayerid="4" nextobjectid="10">
 <editorsettings>
  <export target="../maps/level-ui.tmx" format="tmx"/>
 </editorsettings>
 <tileset firstgid="1" source="tilesets/level-ui-resources.tsx"/>
 <tileset firstgid="3" source="tilesets/test-buttons.tsx"/>
 <objectgroup id="2" name="base">
  <object id="1" gid="1" x="0" y="780" width="1920" height="300"/>
  <object id="7" name="btn01" type="Button" gid="3" x="589.667" y="893" width="203" height="90"/>
  <object id="8" name="btn02" gid="3" x="800.333" y="893" width="203" height="90"/>
  <object id="9" name="btn03" gid="3" x="1009.67" y="891.667" width="203" height="90"/>
 </objectgroup>
 <objectgroup id="3" name="textures">
  <object id="6" name="minimap" type="Minimap" gid="2" x="1509" y="826" width="405" height="248">
   <properties>
    <property name="viewBoxColor" type="color" value="#ff3aff17"/>
    <property name="viewBoxThickness" type="float" value="1.5"/>
   </properties>
  </object>
 </objectgroup>
</map>
